packages/debug/src/browser/style/breakpoint-conditional-unverified.svg

<svg viewBox="0 0 16 16" xmlns="http://www.w3.org/2000/svg"><path d="m16 0v16h-16v-16z" fill="#f6f6f6" opacity="0"/><path d="m6.526 8.421h2.948v.842h-2.948zm5.263-.421a3.789 3.789 0 1 1 -3.789-3.789 3.788 3.788 0 0 1 3.789 3.789zm-1 0a2.789 2.789 0 1 0 -2.789 2.79 2.793 2.793 0 0 0 2.789-2.79zm-4.263-.421h2.948v-.842h-2.948z" fill="#848484"/></svg>

<!--Copyright (c) Microsoft Corporation. All rights reserved.-->
<!--Copyright (C) 2018 TypeFox and others.-->
<!--Licensed under the MIT License. See License.txt in the project root for license information.-->
<svg xmlns="http://www.w3.org/2000/svg" viewBox="0 0 16 16"><defs><style>.icon-canvas-transparent,.icon-vs-out{fill:#f6f6f6;}.icon-canvas-transparent{opacity:0;}.icon-disabled-grey{fill:#848484;}</style></defs><title>breakpoint-conditional-unverified</title><g id="canvas"><path class="icon-canvas-transparent" d="M16,0V16H0V0Z"/></g><g id="outline" style="display: none;"><path class="icon-vs-out" d="M12.632,8A4.632,4.632,0,1,1,8,3.368,4.638,4.638,0,0,1,12.632,8Z"/></g><g id="iconBg"><path class="icon-disabled-grey" d="M6.526,8.421H9.474v.842H6.526ZM11.789,8A3.789,3.789,0,1,1,8,4.211,3.788,3.788,0,0,1,11.789,8Zm-1,0A2.789,2.789,0,1,0,8,10.79,2.793,2.793,0,0,0,10.789,8ZM6.526,7.579H9.474V6.737H6.526Z"/></g></svg>
